images/icons/credit-card.svg

<svg width="16" height="12" viewBox="0 0 16 12" fill="none" xmlns="http://www.w3.org/2000/svg">
<path fill-rule="evenodd" clip-rule="evenodd" d="M0 2C0 1.46957 0.210714 0.960859 0.585786 0.585786C0.960859 0.210714 1.46957 0 2 0H14C14.5304 0 15.0391 0.210714 15.4142 0.585786C15.7893 0.960859 16 1.46957 16 2V10C16 10.5304 15.7893 11.0391 15.4142 11.4142C15.0391 11.7893 14.5304 12 14 12H2C1.46957 12 0.960859 11.7893 0.585786 11.4142C0.210714 11.0391 0 10.5304 0 10V2ZM2 1C1.73478 1 1.48043 1.10536 1.29289 1.29289C1.10536 1.48043 1 1.73478 1 2V3H15V2C15 1.73478 14.8946 1.48043 14.7071 1.29289C14.5196 1.10536 14.2652 1 14 1H2ZM15 5H1V10C1 10.2652 1.10536 10.5196 1.29289 10.7071C1.48043 10.8946 1.73478 11 2 11H14C14.2652 11 14.5196 10.8946 14.7071 10.7071C14.8946 10.5196 15 10.2652 15 10V5Z" fill="white"/>
<path d="M2 8C2 7.73478 2.10536 7.48043 2.29289 7.29289C2.48043 7.10536 2.73478 7 3 7H4C4.26522 7 4.51957 7.10536 4.70711 7.29289C4.89464 7.48043 5 7.73478 5 8V9C5 9.26522 4.89464 9.51957 4.70711 9.70711C4.51957 9.89464 4.26522 10 4 10H3C2.73478 10 2.48043 9.89464 2.29289 9.70711C2.10536 9.51957 2 9.26522 2 9V8Z" fill="white"/>
</svg>

<svg width="16" height="12" fill="none" xmlns="http://www.w3.org/2000/svg"><path fill-rule="evenodd" clip-rule="evenodd" d="M0 2a2 2 0 012-2h12a2 2 0 012 2v8a2 2 0 01-2 2H2a2 2 0 01-2-2V2zm2-1a1 1 0 00-1 1v1h14V2a1 1 0 00-1-1H2zm13 4H1v5a1 1 0 001 1h12a1 1 0 001-1V5z" fill="#fff"/><path d="M2 8a1 1 0 011-1h1a1 1 0 011 1v1a1 1 0 01-1 1H3a1 1 0 01-1-1V8z" fill="#fff"/></svg>
